static/logos/surveymonkey-wordmark-color.svg

<svg width="100" height="16" viewBox="0 0 100 16" fill="none" xmlns="http://www.w3.org/2000/svg">
<g clip-path="url(#clip0_1_845)">
<path fill-rule="evenodd" clip-rule="evenodd" d="M22.8984 11.3456L23.7296 10.3512C24.4822 11.0066 25.2347 11.3791 26.2119 11.3791C27.0663 11.3791 27.6054 10.9838 27.6054 10.3852V10.3624C27.6054 9.79818 27.2905 9.4926 25.8301 9.15399C24.1561 8.74748 23.2129 8.25074 23.2129 6.79306V6.77027C23.2129 5.41539 24.3361 4.47727 25.8975 4.47727C27.0436 4.47727 27.9533 4.82748 28.751 5.47167L28.0096 6.5219C27.3022 5.99167 26.5943 5.70888 25.8752 5.70888C25.0663 5.70888 24.5947 6.12655 24.5947 6.64609V6.66888C24.5947 7.27911 24.9543 7.55027 26.4594 7.91167C28.1217 8.31771 28.9868 8.91632 28.9868 10.227V10.2503C28.9868 11.7293 27.8301 12.6107 26.1789 12.6107C24.9766 12.6107 23.8417 12.1926 22.8984 11.3456ZM29.8943 10.3289V6.53353H31.2543V9.92236C31.2543 10.8479 31.7147 11.3791 32.5236 11.3791C33.3101 11.3791 33.8608 10.8256 33.8608 9.90004V6.53353H35.2198V12.4977H33.8608V11.8828C33.3826 12.3442 32.9282 12.6219 32.0068 12.6219C30.6701 12.6219 29.8952 11.7182 29.8952 10.3289H29.8943ZM36.6729 6.53353H38.0319V7.52748C38.4026 6.63492 39.0877 6.37492 40.1329 6.4205V7.63213H40.0538C38.8631 7.63213 38.0319 8.43213 38.0319 10.2275V12.4972H36.6729V6.53353ZM40.618 6.53353H42.0784L43.6738 10.6833L45.2803 6.53353H46.7068L44.2803 12.5428H43.0556L40.618 6.53353ZM51.1091 9.09771C51.0193 8.21632 50.5026 7.52748 49.604 7.52748C48.7723 7.52748 48.1882 8.1712 48.0644 9.09771H51.1091ZM46.7165 9.53818V9.51492C46.7165 7.80981 47.9189 6.40934 49.6147 6.40934C51.5021 6.40934 52.457 7.9005 52.457 9.61678C52.457 9.74143 52.4458 9.86562 52.4347 10.0014H48.0756C48.2216 10.9726 48.9072 11.5149 49.7835 11.5149C50.4458 11.5149 50.9184 11.2666 51.39 10.8033L52.1877 11.5149C51.6258 12.1926 50.8505 12.6331 49.7607 12.6331C48.0421 12.6331 46.7165 11.3791 46.7165 9.53818ZM59.6616 4.59076H61.1333L63.5258 8.62423L65.9189 4.59076H67.3905V12.4977H66.0091V6.82748L63.5258 10.8493H63.4812L61.0207 6.84934V12.4977H59.6616V4.59076ZM73.3296 9.54934V9.52655C73.3296 8.47632 72.5765 7.60655 71.5096 7.60655C70.4198 7.60655 69.7235 8.46469 69.7235 9.50422V9.52655C69.7235 10.5661 70.4761 11.4475 71.5319 11.4475C72.6333 11.4475 73.3296 10.5772 73.3296 9.54934ZM68.3644 9.54981V9.52655C68.3644 7.82097 69.7123 6.40934 71.5319 6.40934C73.3523 6.40934 74.6891 7.79864 74.6891 9.50422V9.52655C74.6891 11.2214 73.3402 12.6326 71.5096 12.6326C69.7007 12.6326 68.3644 11.2442 68.3644 9.54981ZM82.2923 4.25122H83.6519V9.17678L86.1124 6.53353H87.7635L85.4049 8.9619L87.8421 12.4977H86.27L84.484 9.92236L83.6519 10.7921V12.4977H82.2923V4.25122Z" fill="#00BF6F"/>
<path fill-rule="evenodd" clip-rule="evenodd" d="M92.1273 9.09755C92.038 8.21616 91.5213 7.52732 90.6227 7.52732C89.7911 7.52732 89.2073 8.17104 89.0836 9.09755H92.1273ZM87.7352 9.53802V9.51476C87.7352 7.80964 88.9376 6.40918 90.6338 6.40918C92.5208 6.40918 93.4757 7.90034 93.4757 9.61662C93.4757 9.74127 93.4645 9.86546 93.4538 10.0013H89.0948C89.2408 10.9724 89.9264 11.5148 90.8022 11.5148C91.4655 11.5148 91.9371 11.2664 92.4092 10.8031L93.2064 11.5148C92.6445 12.1924 91.8697 12.6329 90.7799 12.6329C89.0613 12.6329 87.7352 11.3789 87.7352 9.53802ZM57.2348 6.53337L55.5934 10.6003L53.9622 6.53337H52.5469L54.8836 12.3594L53.6641 15.3817H55.0794L58.6501 6.53337H57.2348Z" fill="#00BF6F"/>
<path fill-rule="evenodd" clip-rule="evenodd" d="M98.2493 6.53349L96.6079 10.6005L94.9767 6.53349H93.5614L95.8981 12.3595L94.6786 15.3819H96.094L99.6647 6.53349H98.2493ZM80.9084 8.70232V12.4977H79.5488V9.10884C79.5488 8.18279 79.0884 7.65209 78.2795 7.65209C77.4935 7.65209 76.9428 8.20558 76.9428 9.13116V12.4977H75.5833V6.53349H76.9428V7.14837C77.4205 6.68698 77.8749 6.40884 78.7963 6.40884C80.133 6.40884 80.9084 7.31349 80.9084 8.70232ZM17.7005 11.0907C17.5214 11.0907 17.3581 11.0219 17.2353 10.9112C17.2772 10.5484 17.3051 10.1819 17.3098 9.80884C17.4214 9.73349 17.5563 9.68791 17.7005 9.68791C18.0842 9.68791 18.3981 10.0028 18.3981 10.3907C18.3985 10.4825 18.3806 10.5735 18.3457 10.6584C18.3108 10.7433 18.2594 10.8205 18.1946 10.8855C18.1298 10.9506 18.0528 11.0021 17.968 11.0373C17.8832 11.0726 17.7923 11.0907 17.7005 11.0907ZM2.31907 11.0907C2.22726 11.0907 2.13634 11.0726 2.05154 11.0373C1.96674 11.0021 1.88973 10.9506 1.82492 10.8855C1.7601 10.8205 1.70876 10.7433 1.67383 10.6584C1.63891 10.5735 1.62109 10.4825 1.6214 10.3907C1.6214 10.0028 1.93535 9.68744 2.31907 9.68744C2.46326 9.68744 2.59814 9.73395 2.70977 9.80884C2.71442 10.1819 2.74233 10.5484 2.78419 10.9112C2.65667 11.0265 2.49097 11.0904 2.31907 11.0907ZM17.6549 8.01163C17.4586 8.01163 17.2702 8.0386 17.0893 8.08279C16.3944 5.31907 14.1367 3.18046 11.3163 2.67488C11.1907 2.65163 11.0767 2.63535 10.9488 2.61907C10.9698 1.92651 11.0023 1.12605 12.0153 0.406047L11.8549 0C11.8549 0 9.88093 0.616744 9.65209 2.31535C9.55349 1.85302 8.63302 1.27488 8.17721 1.16512L7.9507 1.53256C7.9507 1.53256 8.55488 1.83674 8.70186 2.67488C5.88233 3.1814 3.62512 5.31953 2.93023 8.08279C2.74507 8.0366 2.55502 8.01284 2.36419 8.01209C1.06093 8.01209 0 9.07628 0 10.3907C0 11.7023 1.06093 12.7688 2.36419 12.7688C2.66977 12.7688 2.96093 12.7074 3.22837 12.6023C3.43011 13.1086 3.68784 13.5906 3.99674 14.0395L5.95953 12.7093L5.94279 12.687C5.42372 12.0163 5.10605 11.0284 5.05302 10.0451C4.99395 8.9614 5.25721 7.88419 5.94605 7.25116C7.36558 6.03628 8.91116 6.58977 9.87953 7.75488H10.14C11.1084 6.58977 12.654 6.03628 14.074 7.25116C14.7623 7.88419 15.0256 8.96139 14.967 10.0456C14.9135 11.0284 14.5958 12.0163 14.0767 12.6874L14.06 12.7088L16.0228 14.0395C16.3316 13.5906 16.5894 13.1085 16.7912 12.6023C17.0661 12.7115 17.3591 12.768 17.6549 12.7688C18.9586 12.7688 20.0195 11.7023 20.0195 10.3907C20.0195 9.07581 18.9586 8.01163 17.6549 8.01163Z" fill="#00BF6F"/>
</g>
<defs>
<clipPath id="clip0_1_845">
<rect width="100" height="15.814" fill="white"/>
</clipPath>
</defs>
</svg>

<svg xmlns="http://www.w3.org/2000/svg" width="400" height="64" fill="none" viewBox="0 0 100 16"><g fill="#00BF6F" fill-rule="evenodd" clip-path="url(#a)" clip-rule="evenodd"><path d="m22.898 11.346.832-.995c.752.656 1.505 1.028 2.482 1.028.854 0 1.393-.395 1.393-.994v-.023c0-.564-.314-.87-1.775-1.208-1.674-.407-2.617-.903-2.617-2.36V6.77c0-1.355 1.123-2.293 2.684-2.293 1.147 0 2.056.35 2.854.995l-.741 1.05c-.708-.53-1.416-.813-2.135-.813-.809 0-1.28.418-1.28.937v.023c0 .61.36.881 1.864 1.243 1.663.406 2.528 1.004 2.528 2.315v.023c0 1.48-1.157 2.36-2.808 2.36a4.83 4.83 0 0 1-3.28-1.264Zm6.996-1.017V6.534h1.36v3.388c0 .926.46 1.457 1.27 1.457.786 0 1.337-.553 1.337-1.479V6.534h1.359v5.964h-1.36v-.615c-.477.461-.932.739-1.853.739-1.337 0-2.112-.904-2.112-2.293Zm6.779-3.795h1.359v.993c.37-.892 1.056-1.152 2.1-1.107v1.212h-.078c-1.19 0-2.022.8-2.022 2.595v2.27h-1.36V6.534Zm3.945 0h1.46l1.596 4.15 1.606-4.15h1.427l-2.427 6.009h-1.224l-2.438-6.01Zm10.491 2.564c-.09-.882-.606-1.57-1.505-1.57-.832 0-1.416.643-1.54 1.57h3.045Zm-4.392.44v-.023c0-1.705 1.202-3.106 2.898-3.106 1.887 0 2.842 1.492 2.842 3.208 0 .124-.011.249-.022.384h-4.36c.147.972.832 1.514 1.708 1.514.663 0 1.135-.248 1.607-.712l.798.712c-.562.678-1.338 1.118-2.427 1.118-1.719 0-3.044-1.254-3.044-3.095Zm12.945-4.947h1.471l2.393 4.033 2.393-4.033h1.472v7.907h-1.382v-5.67l-2.483 4.021h-.045l-2.46-4v5.649h-1.36V4.59ZM73.33 9.549v-.022c0-1.05-.754-1.92-1.82-1.92-1.09 0-1.787.858-1.787 1.897v.023c0 1.04.753 1.92 1.809 1.92 1.101 0 1.798-.87 1.798-1.898Zm-4.966 0v-.022c0-1.706 1.348-3.118 3.168-3.118s3.157 1.39 3.157 3.095v.023c0 1.694-1.349 3.106-3.18 3.106-1.808 0-3.145-1.389-3.145-3.083Zm13.928-5.298h1.36v4.926l2.46-2.643h1.651l-2.358 2.428 2.437 3.536H86.27l-1.786-2.576-.832.87v1.706h-1.36V4.25Z"/><path d="M92.127 9.098c-.089-.882-.606-1.57-1.504-1.57-.832 0-1.416.643-1.54 1.57h3.044Zm-4.392.44v-.023c0-1.705 1.203-3.106 2.899-3.106 1.887 0 2.842 1.491 2.842 3.208 0 .124-.011.248-.022.384h-4.36c.147.971.832 1.514 1.708 1.514.663 0 1.135-.249 1.607-.712l.797.712c-.562.677-1.336 1.118-2.426 1.118-1.719 0-3.045-1.254-3.045-3.095Zm-30.5-3.005L55.593 10.6l-1.63-4.067h-1.416l2.337 5.826-1.22 3.023h1.415l3.571-8.849h-1.415ZM98.25 6.533 96.607 10.6l-1.631-4.067H93.56l2.337 5.827-1.22 3.022h1.416l3.57-8.849H98.25Zm-17.342 2.17v3.795h-1.36v-3.39c0-.925-.46-1.456-1.269-1.456-.785 0-1.336.554-1.336 1.48v3.366h-1.36V6.533h1.36v.615c.478-.461.932-.74 1.853-.74 1.337 0 2.112.905 2.112 2.294ZM17.701 11.09a.694.694 0 0 1-.466-.18c.042-.363.07-.73.075-1.102a.698.698 0 0 1 .39-.121.701.701 0 0 1 0 1.403Zm-15.382 0a.696.696 0 0 1-.698-.7c0-.388.314-.704.698-.704.144 0 .28.047.39.122.005.373.033.74.075 1.102a.695.695 0 0 1-.465.18Zm15.336-3.08c-.196 0-.385.028-.566.072-.695-2.764-2.952-4.903-5.773-5.408a6.366 6.366 0 0 0-.367-.056c.02-.692.053-1.493 1.066-2.213L11.855 0S9.88.617 9.652 2.315c-.099-.462-1.019-1.04-1.475-1.15l-.226.368s.604.304.75 1.142c-2.819.506-5.076 2.645-5.77 5.408a2.377 2.377 0 0 0-.567-.07A2.373 2.373 0 0 0 0 10.39a2.374 2.374 0 0 0 2.364 2.378c.306 0 .597-.062.864-.167.202.507.46.989.769 1.438l1.963-1.33-.017-.023c-.52-.67-.837-1.659-.89-2.642-.06-1.084.204-2.16.893-2.794 1.42-1.215 2.965-.661 3.934.504h.26c.968-1.165 2.514-1.719 3.934-.504.688.633.952 1.71.893 2.795-.053.982-.371 1.97-.89 2.641l-.017.022 1.963 1.33c.309-.448.566-.93.768-1.437.275.11.568.166.864.167a2.374 2.374 0 0 0 2.364-2.378c0-1.315-1.06-2.38-2.364-2.38Z"/></g><defs><clipPath id="a"><path fill="#fff" d="M0 0h100v15.814H0z"/></clipPath></defs></svg>
